X:552
T:Mount Stewart House #2 
C:Joe Buchanan's Scottish Tome - Page 108.1
I:108 1
R:Reel
Z:Carl Allison
L:1/8
M:2/4
K:D
a/>g/ | fd dA | Bd Ad | Be g/f/e/d/ | ce ea/g/ |
fd dA | B/c/d/B/ Ad/c/ | B/c/d/g/ e/d/c/B/ | Ad d :|
f/g/ | a>f da | fd af | e/g/f/a/ g/f/e/d/ | ce ef/g/ |
a>f da | fd a>f | e/d/e/f/ g/f/e/d/ | Ad df/g/ |
a>f da | fd a>f | e/g/f/a/ g/f/e/d/ | ce ea/g/ |
fd dA | B/c/d/B/ Ad/c/ | e/d/e/f/ g/f/e/d/ | Ad d |]

